X: 11730
T: Eleanor Kane's
R: reel
M: 4/4
K: Gmajor
GFGA B2 GA|Bgfg edBA|GFGA B2 EF|GEFD EDB,D|
GFGA BAGA|Bgfg efga|bgaf gafg|ecAF GFGA|
BGFG EFGA|Bgfg edBA|GFGA B2 EF|GEFD EDB,D|
GFGA B2 GA|Bgfg efga|bgaf gafg|ecAF G2 GA|
|:Bdef gfga|bgaf gfed|BGEF GFGA|Bdd^c d2 ef|
g2 af gedc|B2 Ac BGEF|GABG FGAc|1 BGAF GFGA:|2 BGAF G4||

